X:1
T: Miss Annie Robertson (Dingwall)
C:
R:Strathspey
Q: 128
K:F
M:4/4
L:1/16
|:A3c AF3 Ac3 c4|B3d BG3 Bd3 d4|Ac3 cf3 Bd3 dg3|e3c de3 f4 f4|
A3c AF3 Ac3 c4|B3d BG3 Bd3 d4|Ac3 cf3 Bd3 dg3|e3c de3 f4 f4|
a2f2 f3e1/2f1/2 ge3 e3g|fd3 g3f e2c2 c3B1/2c1/2|dB3 fB3 c3A fA3|BG3 F3E F4 F2fg|
ac'3 fa3 gc'3 eg3|fd3 g3f e2c2 c3B1/2c1/2|db3 Bd3 c3a fc3|dg3 ce3 f4 f4:|
